X: 36554
T: Seven Sisters, The
R: reel
M: 4/4
K: Dmajor
|:~D2FD ADFA|~d2cd BAFD|~E3F ~G3A|B/c/ded cABc|
df~f2 dfec|dcAF ~G3A|B/c/deg fdec|1 dfec dBAF:|2 dfec defg||
|:~a2^ga fdcd|Adfa bafa|gafg efde|cA^GA BA=GA|
FAdf gece|da^ga ba=ga|fAdf gece|1 ~e2dc defg:|2 ~e2dc dBAF||

